X: 114
T:Sean Ryan's reel
R:Reel
M:4/4
L:1/8
Q:1/2=112
K:D
|FGAG FDD2|=CA,G,A, CDEG|Add2 cded|cAGF E=CC2|
FGAG FDD2|=CA,G,A, CDEG|Add2 cded|[1 cA (3GFE D2D2:|[2 cA (3GFE D2 (3ABc|
|:d2Ad FdAF|GFGA GEC2|A,DD2 CDEF|GFGA BABc|
d2Ad FdAF|GFGA GEC2|A,DD2 CDEG|[1 FDEC D2 (3ABc:|[2 FDEC D4|
